X: 37265
T: Skelton's
R: mazurka
M: 3/4
K: Gmajor
DG GF GB|DB BA Bd|cB AG FG|AG FE D2|
DG GF GB|DB BA Bd|cB AG FG|A2 G2:|
d2 de dc|BA G2 AB|c2 cd cB|A3 A Bc|
d2 de dc|BA G2 AB|cB AG FA|A2 G2:|

